X:1
T: The Dandy Bonnet
C:
R:Jig
Q:180
K:A
M:6/8
L:1/16
e2|c2A2A2 A4E2|A2c2e2 f4d2|c2A2A2 A2c2e2|f2d2f2 e4gg|a2f2a2 g2e2c2|f2d2f2 e2c2A2|c2A2F2 E2F2G2|A2B2A2 A4e2|
c2A2A2 A4E2|A2c2e2 f4d2|c2A2A2 A2c2e2|f2d2f2 e4gg|a2f2a2 g2e2c2|f2d2f2 e2c2A2|c2A2F2 E2F2G2|A2B2A2 A4e2|
c2A2F2 E2C2E2|A2E2A2 e2c2A2|d2B2G2 G2B2c2|d2B2f2 f2e2d2|c2A2F2 E2C2E2|A2E2A2 d2e2f2|e2a2c2 B2d2G2|A2B2A2 A4e2|
c2A2F2 E2C2E2|A2E2A2 e2c2A2|d2B2G2 G2B2c2|d2B2f2 f2e2d2|c2A2F2 E2C2E2|A2E2A2 d2e2f2|e2a2c2 B2d2G2|A2B2A2 A4||
